app/dist/common/images/keisei-electric-railway.svg

<svg height="18" viewBox="0 0 18 18" width="18" xmlns="http://www.w3.org/2000/svg"><path d="m0 0h18v18h-18z" fill="#f0f3fa"/><path d="m6.42 9.1c.22-.14.48-.36.66-.5l3.08-2.6c.16.01.32.03.5.03l.49-.03-2.85 2.23-1.06.88c1 .94 2.04 1.86 3.04 2.82l1.02 1.02v.05h-1.4c-.27-.33-.54-.63-.86-.93l-2.73-2.61c-.06-.04-.31-.07-.31-.03v3.57h-1v-7h1v3.16c.01.06.29.02.42-.06z" fill="#1e54ae"/><path d="m13.21 5h-1.41c-.56 0-.9.26-.76.57l1.22 2.71c.14.32.37.32.5 0l1.22-2.7c.14-.32-.2-.58-.76-.58z" fill="#d91738"/></svg>

<!-- by TradingView --><svg xmlns="http://www.w3.org/2000/svg" width="18" height="18" viewBox="0 0 18 18"><path fill="#F0F3FA" d="M0 0h18v18H0z"/><path d="M6.42 9.1c.22-.14.48-.36.66-.5L10.16 6c.16.01.32.03.5.03l.49-.03L8.3 8.23l-1.06.88c1 .94 2.04 1.86 3.04 2.82l1.02 1.02V13H9.9c-.27-.33-.54-.63-.86-.93L6.31 9.46C6.25 9.42 6 9.39 6 9.43V13H5V6h1v3.16c.01.06.29.02.42-.06Z" fill="#1E54AE"/><path d="M13.21 5H11.8c-.56 0-.9.26-.76.57l1.22 2.71c.14.32.37.32.5 0l1.22-2.7c.14-.32-.2-.58-.76-.58Z" fill="#D91738"/></svg>
